src/static/logos/kustomer.svg

<?xml version="1.0" encoding="UTF-8"?>
<svg width="512px" height="76px" viewBox="0 0 512 76" version="1.1" xmlns="http://www.w3.org/2000/svg" xmlns:xlink="http://www.w3.org/1999/xlink" preserveAspectRatio="xMidYMid">
    <g>
				<path d="M283.188571,49.6953168 L257.636571,49.6953168 C257.267117,49.6939153 256.925215,49.890509 256.740571,50.2105168 C256.555311,50.5330855 256.555311,50.9297767 256.740571,51.2523454 C256.925257,51.5814883 261.437714,59.3410311 270.418743,59.3410311 C279.401143,59.3410311 283.899886,51.5819454 284.085029,51.2523454 C284.259177,50.9254611 284.253308,50.5320606 284.069486,50.2105168 C283.888836,49.8936558 283.552849,49.6972568 283.188114,49.6953168 L283.188571,49.6953168 Z M283.600914,22.284574 C284.781714,22.284574 285.722057,21.3163454 285.722057,20.130974 C285.722057,18.9392025 284.781714,17.9778311 283.600914,17.9778311 C278.576,17.9778311 274.504686,22.0916597 274.504686,27.1430883 L274.504686,37.7008025 C274.504686,38.8852597 275.458743,39.8466311 276.640457,39.8466311 L283.600914,39.8466311 C284.781714,39.8466311 285.722057,38.8852597 285.722057,37.7008025 L285.722057,30.6745168 C285.722057,29.4836597 284.781714,28.521374 283.600914,28.521374 L278.747429,28.521374 L278.747429,27.1435454 C278.747429,24.4742883 280.9248,22.2850311 283.601371,22.2850311 L283.600914,22.284574 Z M257.210057,39.8470883 C256.029257,39.8470883 255.088914,38.8857168 255.088914,37.7012597 L255.088914,27.1430883 C255.088914,22.0916597 259.159771,17.9778311 264.185143,17.9778311 C265.366857,17.9778311 266.32,18.9392025 266.32,20.130974 C266.32,21.3163454 265.366857,22.2841168 264.185143,22.2841168 C261.5232,22.2841168 259.345829,24.4738311 259.345829,27.1430883 L259.345829,28.521374 L264.185143,28.521374 C265.366857,28.521374 266.32,29.4832025 266.32,30.6740597 L266.32,37.7012597 C266.32,38.8857168 265.366857,39.8470883 264.185143,39.8470883 L257.210057,39.8470883 Z M4.65508571,3.20023111 C2.08594286,3.20023111 0,5.29577397 0,7.88685969 L0,69.1302883 C0,71.7222883 2.08594286,73.817374 4.65508571,73.817374 C7.21737143,73.817374 9.29554286,71.7227454 9.29554286,69.1302883 L9.29554286,7.88685969 C9.29554286,5.29577397 7.21737143,3.20023111 4.65508571,3.20023111 Z M468.818286,12.5666311 L489.152,12.5666311 C496.505143,12.5666311 502.490514,18.6022883 502.490514,26.0244597 C502.490514,33.4457168 496.505143,39.481374 489.152,39.481374 L468.818286,39.481374 L468.818286,12.5666311 Z M498.006857,47.0251454 C506.100114,43.5430883 511.786514,35.4411454 511.786514,26.0240025 C511.786514,13.4342883 501.635657,3.19337397 489.152,3.19337397 L464.170514,3.19337397 C461.608686,3.19337397 459.522286,5.28800254 459.522286,7.87908826 L459.522286,69.1312025 C459.522286,71.7232025 461.608686,73.817374 464.170514,73.817374 C466.731886,73.817374 468.818286,71.7236597 468.818286,69.1316597 L468.818286,48.8550883 L488.5056,48.8550883 L499.8144,71.2550883 C500.365367,72.3611497 501.33604,73.2007321 502.509942,73.5865939 C503.683845,73.9724556 504.963343,73.8725044 506.063086,73.3090311 C508.347429,72.1318883 509.258971,69.3108597 508.099657,67.0064025 L498.006857,47.0251454 Z M49.5657143,4.54240254 C48.6885296,3.67318409 47.5004759,3.19036912 46.2656176,3.20127124 C45.0307594,3.21217336 43.8514154,3.71588924 42.9897143,4.60045969 L13.1396571,35.225374 C11.3668571,37.0484597 11.3668571,39.9764597 13.1396571,41.7995454 L42.9897143,72.4180597 C43.9012571,73.3515454 45.0962286,73.8169168 46.3067429,73.8169168 C47.4806857,73.8169168 48.6550857,73.3734883 49.5661714,72.4747454 C51.3878857,70.6594311 51.4176,67.6884597 49.6233143,65.8448025 L22.976,38.5122311 L49.6237714,11.174174 C51.4176,9.3222883 51.3883429,6.35863111 49.5661714,4.54240254 L49.5657143,4.54240254 Z M109.466057,3.19291683 C106.904229,3.19291683 104.818286,5.28845969 104.818286,7.88000254 L104.818286,46.5520025 C104.818286,56.418974 96.8608,64.4432025 87.0756571,64.4432025 C77.296,64.4432025 69.3380571,56.418974 69.3380571,46.5520025 L69.3380571,7.88000254 C69.3380571,5.28845969 67.2525714,3.19291683 64.6829714,3.19291683 C62.1211429,3.19291683 60.0420571,5.28845969 60.0420571,7.88000254 L60.0420571,46.5520025 C60.0420571,61.5883454 72.1705143,73.817374 87.0756571,73.817374 C101.986286,73.817374 114.113829,61.5888025 114.113829,46.5520025 L114.113829,7.88000254 C114.113829,5.28845969 112.0288,3.19291683 109.466057,3.19291683 Z M147.0176,32.6347454 C130.5344,28.7444597 131.843657,21.4804597 132.327314,18.738974 C132.840229,15.926174 134.590171,13.9435454 137.701486,12.6662883 C143.856914,10.1474311 153.68,11.3460597 159.167543,15.2866311 C160.170799,16.0074717 161.420725,16.2970242 162.638751,16.0907567 C163.856777,15.8844891 164.941676,15.199544 165.651657,14.188574 C167.138743,12.0779454 166.655086,9.1568025 164.561829,7.65005969 C156.561829,1.90103111 143.231543,0.285488257 134.207086,3.9819454 C128.170057,6.45828826 124.256457,11.1024025 123.188571,17.0740597 C121.921829,24.0788597 123.074743,36.6114311 144.896914,41.7638883 C151.901257,43.4155454 156.981943,46.4998883 158.832457,50.2338311 C160.028343,52.6521168 159.928229,55.3872025 158.527086,58.5940597 C157.066971,61.9472025 153.316571,63.3675454 150.426971,63.9632025 C143.258971,65.4338311 134.049371,63.4320025 129.864686,59.4987454 C127.984914,57.7264025 125.038629,57.8182883 123.295543,59.721374 C121.537371,61.6166883 121.637486,64.5808025 123.515886,66.3467454 C128.4704,71.010974 137.125029,73.8169168 145.479771,73.8169168 C147.800686,73.8169168 150.106057,73.6020597 152.298971,73.1504025 C159.416686,71.6710883 164.654171,67.846174 167.031771,62.370974 C169.552,56.620574 169.5872,50.9716597 167.146057,46.0486883 C164.014629,39.718174 156.861714,34.9515454 147.0176,32.6347454 Z M222.526171,3.19291683 L177.430857,3.19291683 C174.861714,3.19291683 172.783086,5.28845969 172.783086,7.88000254 C172.783086,10.4710883 174.862171,12.5657168 177.430857,12.5657168 L195.3312,12.5657168 L195.3312,69.1302883 C195.3312,71.7222883 197.409371,73.817374 199.978514,73.817374 C202.549029,73.817374 204.626286,71.7227454 204.626286,69.1302883 L204.626286,12.566174 L222.526629,12.566174 C225.096686,12.566174 227.1744,10.4710883 227.1744,7.88000254 C227.1744,5.28845969 225.096686,3.19291683 222.526629,3.19291683 L222.526171,3.19291683 Z M384.968229,3.55908826 C383.2448,2.84183111 381.259886,3.20023111 379.914514,4.52823111 L353.480229,30.5680025 L327.044571,4.52823111 C325.7088,3.20023111 323.721143,2.84183111 321.992229,3.55908826 C320.271086,4.29051683 319.146057,5.99245969 319.146057,7.88000254 L319.146057,69.1302883 C319.146057,71.7222883 321.230629,73.817374 323.800686,73.817374 C326.362514,73.817374 328.4416,71.7227454 328.4416,69.1302883 L328.4416,19.0118883 L350.2336,40.4724597 C352.034191,42.2528954 354.932209,42.2528954 356.7328,40.4724597 L378.5184,19.0118883 L378.5184,69.1302883 C378.5184,71.7222883 380.597486,73.817374 383.166171,73.817374 C385.736686,73.817374 387.813029,71.7227454 387.813029,69.1302883 L387.813029,7.88000254 C387.813029,5.99200254 386.690743,4.29051683 384.968229,3.55908826 Z M446.477257,12.5666311 C449.039086,12.5666311 451.125029,10.4706311 451.125029,7.8795454 C451.125029,5.28800254 449.039086,3.19383111 446.477257,3.19383111 L403.138743,3.19383111 C400.568229,3.19383111 398.490971,5.28800254 398.490971,7.8795454 L398.490971,69.1307454 C398.490971,71.7227454 400.568229,73.8169168 403.138743,73.8169168 L446.477257,73.8169168 C449.039086,73.8169168 451.125029,71.7232025 451.125029,69.1312025 C451.125029,66.5392025 449.039086,64.4436597 446.477257,64.4436597 L407.786514,64.4436597 L407.786514,42.4889168 L439.1744,42.4889168 C441.743543,42.4889168 443.828571,40.3924597 443.828571,37.8022883 C443.828571,35.2107454 441.743543,33.1152025 439.174857,33.1152025 L407.786514,33.1152025 L407.786514,12.5666311 L446.477257,12.5666311 Z" fill="#000000"></path>
				<path d="M285.1056,0 L256.2384,0 C243.426057,0 233,10.5142858 233,23.4340572 L233,52.5517715 C233,65.4710858 243.426057,75.9858286 256.2384,75.9858286 L275.816914,75.9858286 L262.907657,66.6116572 L256.2384,66.6116572 C248.550629,66.6116572 242.295086,60.3044572 242.295086,52.5517715 L242.295086,23.4340572 C242.295086,15.6822858 248.550629,9.37325716 256.2384,9.37325716 L285.1056,9.37325716 C292.792457,9.37325716 299.057143,15.6818286 299.057143,23.4340572 L299.057143,52.5517715 C299.057143,60.3049143 292.792457,66.6116572 285.105143,66.6116572 L279.618514,66.6116572 L279.618514,75.9858286 L285.1056,75.9858286 C297.917943,75.9858286 308.352686,65.4715429 308.352686,52.5517715 L308.352686,23.4340572 C308.352686,10.5147429 297.917943,0 285.1056,0" fill="#FF655D"></path>
    </g>
</svg>

<svg width="512" height="76" xmlns="http://www.w3.org/2000/svg" preserveAspectRatio="xMidYMid"><path d="M283.189 49.695h-25.552a1.03 1.03 0 00-.896.516 1.04 1.04 0 000 1.041c.184.33 4.697 8.089 13.678 8.089 8.982 0 13.48-7.76 13.666-8.089.174-.327.168-.72-.016-1.041a1.02 1.02 0 00-.88-.516zm.412-27.41c1.18 0 2.121-.969 2.121-2.154 0-1.192-.94-2.153-2.121-2.153-5.025 0-9.096 4.114-9.096 9.165v10.558a2.14 2.14 0 002.135 2.146h6.96a2.128 2.128 0 002.122-2.146v-7.026c0-1.191-.94-2.154-2.121-2.154h-4.854v-1.377c0-2.67 2.178-4.859 4.854-4.859zm-26.39 17.562a2.128 2.128 0 01-2.122-2.146V27.143c0-5.051 4.07-9.165 9.096-9.165a2.14 2.14 0 012.135 2.153 2.145 2.145 0 01-2.135 2.153c-2.662 0-4.84 2.19-4.84 4.86v1.377h4.84a2.14 2.14 0 012.135 2.153v7.027a2.14 2.14 0 01-2.135 2.146h-6.975zM4.654 3.2C2.085 3.2 0 5.296 0 7.887V69.13c0 2.592 2.086 4.687 4.655 4.687 2.562 0 4.64-2.094 4.64-4.687V7.887c0-2.591-2.078-4.687-4.64-4.687zm464.163 9.367h20.334c7.353 0 13.339 6.035 13.339 13.457 0 7.422-5.986 13.457-13.339 13.457h-20.334V12.567zm29.189 34.458a22.858 22.858 0 0013.78-21.001c0-12.59-10.151-22.83-22.635-22.83H464.17c-2.562 0-4.649 2.094-4.649 4.685v61.252c0 2.592 2.087 4.686 4.649 4.686 2.56 0 4.647-2.093 4.647-4.685V48.855h19.688l11.308 22.4a4.625 4.625 0 006.25 2.054c2.283-1.177 3.195-3.998 2.036-6.303l-10.093-19.98zM49.566 4.542a4.63 4.63 0 00-6.576.058L13.14 35.225a4.728 4.728 0 000 6.575l29.85 30.618a4.606 4.606 0 003.317 1.399 4.62 4.62 0 003.26-1.342c1.82-1.816 1.85-4.787.056-6.63L22.976 38.512l26.648-27.338a4.732 4.732 0 00-.058-6.632zm59.9-1.35c-2.562 0-4.648 2.096-4.648 4.688v38.672c0 9.867-7.957 17.891-17.742 17.891-9.78 0-17.738-8.024-17.738-17.891V7.88c0-2.592-2.085-4.687-4.655-4.687-2.562 0-4.64 2.095-4.64 4.687v38.672c0 15.036 12.128 27.265 27.033 27.265 14.91 0 27.038-12.228 27.038-27.265V7.88c0-2.592-2.085-4.687-4.648-4.687zm37.552 29.443c-16.484-3.89-15.174-11.155-14.69-13.896.512-2.813 2.262-4.795 5.373-6.073 6.156-2.519 15.979-1.32 21.467 2.62a4.625 4.625 0 006.484-1.097c1.487-2.111 1.003-5.032-1.09-6.539-8-5.749-21.33-7.365-30.355-3.668-6.037 2.476-9.95 7.12-11.018 13.092-1.267 7.005-.114 19.537 21.708 24.69 7.004 1.652 12.085 4.736 13.935 8.47 1.196 2.418 1.096 5.153-.305 8.36-1.46 3.353-5.21 4.774-8.1 5.37-7.168 1.47-16.378-.532-20.562-4.465-1.88-1.773-4.826-1.68-6.57.222a4.708 4.708 0 00.22 6.626c4.955 4.664 13.61 7.47 21.965 7.47 2.32 0 4.626-.215 6.819-.667 7.118-1.479 12.355-5.304 14.733-10.779 2.52-5.75 2.555-11.4.114-16.322-3.131-6.33-10.284-11.097-20.128-13.414zm75.508-29.442h-45.095c-2.57 0-4.648 2.095-4.648 4.687 0 2.591 2.08 4.686 4.648 4.686h17.9V69.13c0 2.592 2.078 4.687 4.648 4.687s4.647-2.094 4.647-4.687V12.566h17.9c2.57 0 4.648-2.095 4.648-4.686 0-2.592-2.077-4.687-4.647-4.687zm162.442.366a4.634 4.634 0 00-5.053.97L353.48 30.567l-26.435-26.04c-1.336-1.328-3.324-1.686-5.053-.969a4.693 4.693 0 00-2.846 4.321v61.25c0 2.592 2.085 4.687 4.655 4.687 2.562 0 4.64-2.094 4.64-4.687V19.012l21.793 21.46a4.622 4.622 0 006.499 0l21.785-21.46V69.13c0 2.592 2.08 4.687 4.648 4.687 2.57 0 4.647-2.094 4.647-4.687V7.88a4.689 4.689 0 00-2.845-4.32zm61.51 9.008c2.561 0 4.647-2.096 4.647-4.687 0-2.592-2.086-4.686-4.648-4.686H403.14c-2.57 0-4.648 2.094-4.648 4.686v61.25c0 2.593 2.077 4.687 4.648 4.687h43.338c2.562 0 4.648-2.094 4.648-4.686s-2.086-4.687-4.648-4.687h-38.69V42.489h31.387c2.57 0 4.655-2.097 4.655-4.687 0-2.591-2.085-4.687-4.654-4.687h-31.388V12.567h38.69z"/><path d="M285.106 0h-28.868C243.426 0 233 10.514 233 23.434v29.118c0 12.92 10.426 23.434 23.238 23.434h19.579l-12.91-9.374h-6.669c-7.687 0-13.943-6.308-13.943-14.06V23.434c0-7.752 6.256-14.06 13.943-14.06h28.868c7.686 0 13.951 6.308 13.951 14.06v29.118c0 7.753-6.265 14.06-13.952 14.06h-5.486v9.374h5.487c12.812 0 23.247-10.514 23.247-23.434V23.434C308.353 10.514 297.918 0 285.106 0" fill="#FF655D"/></svg>
